X:1
T: The Stilly Night
C:
R:Strathspey
Q: 128
K:A
M:4/4
L:1/16
|:c4 c3 B3 A3 F3|FA3 E3E A3c Bcd2|c4 c3B AF3 FA3|EE3 e3c B4 A4|
c4 c3 B3 A3 F3|FA3 E3E A3c Bcd2|c4 c3B AF3 FA3|EE3 e3c B4 A4|
E3A A3c B3A A3A|BA3 d3c B4 A4|E3A A3A B3A A3A|e3c c3A Bcd2 c4|
E3A A3c B3A A3A|BA3 d3c B4 A4|E3A A3A B3A A3A|e3c c3A Bcd2 c4:|
